X:480
T: Crimlin Cat
T: Cat na Crimlinne
S: B.Breathnach:"Ceol Rince na hEireann" IV/97
Z: B.Black
L: 1/8
M: 4/4
R: reel
K: Ador
G|A2 (3AAA ABcd|efed cAAB|c2 cA B2 BG|AcBA GEED|
A2 (3AAA A2 (3Bcd|efed cA A2|g2 fg (3efe dB|BedB A2 Bd ||
ea (3aaa a2 ga|b2 ba geef|g2 ef gfef|g2 af gfed|
c2 cA (3BBB BG|AcBA GEED|g2 fg (3efe dB|BedB A3 ||
